X:633
%%etbk:tnset id:377,pos:1,rep:3x,ant:
%%etbk:pldat 2016-08-17T16:27,2016-08-16T16:30,2016-08-09T15:27,2016-05-19T18:46,2016-05-18T16:37,2016-05-17T16:09,2016-05-16T14:43,2016-05-14T16:00,2016-05-10T18:29,2015-11-20T16:20,2015-11-18T16:10,2015-11-17T16:29,2015-11-15T14:25,2015-11-14T15:12,2015-11-08T13:29,2015-09-10T16:30,2015-09-09T16:51,2015-09-03T16:42,2015-09-02T16:40,2015-09-01T16:33,2015-08-31T18:55,2015-08-30T14:49,2015-08-26T15:56,2015-08-06T17:53,2015-08-05T16:32,2015-08-04T16:58,2015-08-03T18:32,2015-08-02T11:34,2015-07-31T17:46,2015-07-27T18:26,2015-06-16T16:25,2015-04-16T19:19,2015-04-15T16:45,2015-04-13T18:57,2015-04-12T11:26,2015-04-11T14:41,2015-03-19T19:16,2015-03-18T16:45,2015-03-16T19:37,2015-03-15T14:24,2015-03-11T16:04,2015-03-04T16:07,2015-02-22T15:45,2015-02-21T17:04,2015-02-19T19:52,2015-02-18T16:17,2015-02-17T16:21,2015-02-16T18:21,2015-02-13T18:43,2015-02-11T16:58,2015-02-10T17:08
T: The River Saile
H: Created 2015-02-09 /  Modified 2015-02-09
R: song
M: 2/4
L: 1/8
K: Amaj
E |"A"ECCE|ECC2| A,CEE | F2E>E|
"E"EB,B,E |EB,B,2 |EFEC |B,2"A"A,2 |


